X: 20874
T: Jolly Seven, The
R: reel
M: 4/4
K: Cmajor
A3 B|:cAeA cAeA|cAeA dBGB|cAeA cdef|gfge dBGB|
cAeA cAeA|cAeA dBGB|cBAG ABcd|eged A3 B:|
|:c2ec gcec|c2ec dBGB|c2ec gcec|gfge dBGB|
c2 ec gcec|c2 ec dBGB|cBAG ABcd|eged A3 B:|eged cAAB||

